X:83
T: Jetzt reisen wir zum Tor hinaus (1-4), S. 10
N: K0083
O: Luxemburg
S: KINTZELE, Guillaume: An der Ucht, Bd. 1, Luxemburg 1926]
N: in der Quelle mit einer 2. Stimme versehen
R: Trennung]
M: 4/4
L: 1/8
K: G
D | G2G2G2G2 | G2B2A2G2 | A4z2
DF | A2A2A2A2 | A2c2B2A2 | B4z2
d2 | d2B2B2B2 | B2d2d2
cB | A2AAA2A2 | A2eed2
B2 | G2d2d2c2 | B4z3

@@@ Tune index: 8137
